icon/ir/rotate-camera-left.svg

<svg stroke-width="1.5" viewBox="0 0 24 24" fill="none" xmlns="http://www.w3.org/2000/svg" height="1em" width="1em">
  <path d="M2.05078 3V7.49704C2.05078 7.77482 2.27596 8 2.55374 8V8C2.75366 8 2.93357 7.88104 3.01963 7.70059C4.62737 4.32948 8.06703 2 12.0508 2C17.2361 2 21.4997 5.94668 22.0014 11" stroke="currentColor" stroke-linecap="round" stroke-linejoin="round"/>
  <path d="M22.0014 21V16.503C22.0014 16.2252 21.7762 16 21.4984 16V16C21.2985 16 21.1186 16.119 21.0326 16.2994C19.4248 19.6705 15.9852 22 12.0014 22C6.81606 22 2.55251 18.0533 2.05078 13" stroke="currentColor" stroke-linecap="round" stroke-linejoin="round"/>
  <path d="M6 16.4V9.39365C6 9.06228 6.26863 8.79365 6.6 8.79365H7.77283C7.97677 8.79365 8.16674 8.69006 8.2772 8.51863L9.7228 6.27502C9.83326 6.10359 10.0232 6 10.2272 6H13.7728C13.9768 6 14.1667 6.10359 14.2772 6.27502L15.7228 8.51863C15.8333 8.69006 16.0232 8.79365 16.2272 8.79365H17.4C17.7314 8.79365 18 9.06228 18 9.39365V16.4C18 16.7314 17.7314 17 17.4 17H6.6C6.26863 17 6 16.7314 6 16.4Z" stroke="currentColor" stroke-linecap="round" stroke-linejoin="round"/>
  <path d="M12 14C13.1046 14 14 13.1046 14 12C14 10.8954 13.1046 10 12 10C10.8954 10 10 10.8954 10 12C10 13.1046 10.8954 14 12 14Z" stroke="currentColor" stroke-linecap="round" stroke-linejoin="round"/>
</svg>

<svg width="24" height="24" stroke-width="1.5" fill="none" xmlns="http://www.w3.org/2000/svg"><path d="M2.05 3v4.497c0 .278.226.503.504.503v0c.2 0 .38-.119.466-.3A10.001 10.001 0 0 1 12.05 2c5.186 0 9.45 3.947 9.951 9M22.001 21v-4.497a.503.503 0 0 0-.503-.503v0a.52.52 0 0 0-.465.3A10.001 10.001 0 0 1 12 22c-5.185 0-9.448-3.947-9.95-9" stroke="currentColor" stroke-linecap="round" stroke-linejoin="round"/><path d="M6 16.4V9.394a.6.6 0 0 1 .6-.6h1.173a.6.6 0 0 0 .504-.275l1.446-2.244A.6.6 0 0 1 10.227 6h3.546a.6.6 0 0 1 .504.275l1.446 2.244a.6.6 0 0 0 .504.275H17.4a.6.6 0 0 1 .6.6V16.4a.6.6 0 0 1-.6.6H6.6a.6.6 0 0 1-.6-.6Z" stroke="currentColor" stroke-linecap="round" stroke-linejoin="round"/><path d="M12 14a2 2 0 1 0 0-4 2 2 0 0 0 0 4Z" stroke="currentColor" stroke-linecap="round" stroke-linejoin="round"/></svg>
